assets/images/number_3.svg

<svg width="223" height="134" viewBox="0 0 223 134" fill="none" xmlns="http://www.w3.org/2000/svg">
<mask id="path-1-outside-1_0_542" maskUnits="userSpaceOnUse" x="-0.74707" y="-0.408203" width="224" height="135" fill="black">
<rect fill="white" x="-0.74707" y="-0.408203" width="224" height="135"/>
<path d="M56.5749 132.841C46.6569 132.841 38.1639 131.245 31.0959 128.053C24.0279 124.747 18.2709 120.301 13.8249 114.715C9.49293 109.129 6.24393 102.688 4.07793 95.3918C2.02593 87.9818 0.99993 80.1728 0.99993 71.9648V62.2178C0.99993 50.8178 2.99493 40.5008 6.98493 31.2668C10.9749 22.0328 17.0739 14.6798 25.2819 9.20779C33.4899 3.73579 43.9209 0.999791 56.5749 0.999791C69.2289 0.999791 79.6029 3.73579 87.6969 9.20779C95.9049 14.6798 102.004 22.0328 105.994 31.2668C109.984 40.5008 111.979 50.8178 111.979 62.2178V71.9648C111.979 80.1728 110.896 87.9818 108.73 95.3918C106.678 102.688 103.429 109.129 98.9829 114.715C94.6509 120.301 88.9509 124.747 81.8829 128.053C74.9289 131.245 66.4929 132.841 56.5749 132.841ZM56.5749 107.02C65.8089 107.02 72.6489 103.828 77.0949 97.4438C81.6549 90.9458 83.9349 80.9138 83.9349 67.3478C83.9349 52.9838 81.5979 42.6668 76.9239 36.3968C72.3639 30.0128 65.5809 26.8208 56.5749 26.8208C47.3409 26.8208 40.4439 30.0128 35.8839 36.3968C31.3239 42.6668 29.0439 52.8698 29.0439 67.0058C29.0439 80.6858 31.2669 90.7748 35.7129 97.2728C40.2729 103.771 47.2269 107.02 56.5749 107.02ZM174.684 132.841C164.994 132.841 156.558 131.074 149.376 127.54C142.308 123.892 136.893 118.99 133.131 112.834C129.369 106.678 127.488 99.7238 127.488 91.9718H154.506C154.506 97.2158 156.273 101.491 159.807 104.797C163.341 107.989 168.3 109.585 174.684 109.585C178.902 109.585 182.493 108.787 185.457 107.191C188.421 105.595 190.701 103.429 192.297 100.693C193.893 97.8428 194.691 94.6508 194.691 91.1168C194.691 85.6448 192.924 81.1418 189.39 77.6078C185.97 74.0738 181.068 72.3068 174.684 72.3068C171.264 72.3068 168.243 72.8198 165.621 73.8458C163.113 74.8718 160.947 76.1258 159.123 77.6078L146.469 56.2328L184.26 31.6088L182.721 28.7018H132.618V4.76179H216.75V30.7538L173.145 58.4558L159.465 54.6938C161.745 54.0098 164.139 53.4968 166.647 53.1548C169.269 52.6988 172.062 52.4708 175.026 52.4708C184.716 52.4708 193.038 54.0668 199.992 57.2588C206.946 60.4508 212.304 64.9538 216.066 70.7678C219.942 76.4678 221.88 83.1368 221.88 90.7748V92.8268C221.88 100.465 219.942 107.305 216.066 113.347C212.304 119.389 206.889 124.177 199.821 127.711C192.867 131.131 184.488 132.841 174.684 132.841Z"/>
</mask>
<path d="M56.5749 132.841C46.6569 132.841 38.1639 131.245 31.0959 128.053C24.0279 124.747 18.2709 120.301 13.8249 114.715C9.49293 109.129 6.24393 102.688 4.07793 95.3918C2.02593 87.9818 0.99993 80.1728 0.99993 71.9648V62.2178C0.99993 50.8178 2.99493 40.5008 6.98493 31.2668C10.9749 22.0328 17.0739 14.6798 25.2819 9.20779C33.4899 3.73579 43.9209 0.999791 56.5749 0.999791C69.2289 0.999791 79.6029 3.73579 87.6969 9.20779C95.9049 14.6798 102.004 22.0328 105.994 31.2668C109.984 40.5008 111.979 50.8178 111.979 62.2178V71.9648C111.979 80.1728 110.896 87.9818 108.73 95.3918C106.678 102.688 103.429 109.129 98.9829 114.715C94.6509 120.301 88.9509 124.747 81.8829 128.053C74.9289 131.245 66.4929 132.841 56.5749 132.841ZM56.5749 107.02C65.8089 107.02 72.6489 103.828 77.0949 97.4438C81.6549 90.9458 83.9349 80.9138 83.9349 67.3478C83.9349 52.9838 81.5979 42.6668 76.9239 36.3968C72.3639 30.0128 65.5809 26.8208 56.5749 26.8208C47.3409 26.8208 40.4439 30.0128 35.8839 36.3968C31.3239 42.6668 29.0439 52.8698 29.0439 67.0058C29.0439 80.6858 31.2669 90.7748 35.7129 97.2728C40.2729 103.771 47.2269 107.02 56.5749 107.02ZM174.684 132.841C164.994 132.841 156.558 131.074 149.376 127.54C142.308 123.892 136.893 118.99 133.131 112.834C129.369 106.678 127.488 99.7238 127.488 91.9718H154.506C154.506 97.2158 156.273 101.491 159.807 104.797C163.341 107.989 168.3 109.585 174.684 109.585C178.902 109.585 182.493 108.787 185.457 107.191C188.421 105.595 190.701 103.429 192.297 100.693C193.893 97.8428 194.691 94.6508 194.691 91.1168C194.691 85.6448 192.924 81.1418 189.39 77.6078C185.97 74.0738 181.068 72.3068 174.684 72.3068C171.264 72.3068 168.243 72.8198 165.621 73.8458C163.113 74.8718 160.947 76.1258 159.123 77.6078L146.469 56.2328L184.26 31.6088L182.721 28.7018H132.618V4.76179H216.75V30.7538L173.145 58.4558L159.465 54.6938C161.745 54.0098 164.139 53.4968 166.647 53.1548C169.269 52.6988 172.062 52.4708 175.026 52.4708C184.716 52.4708 193.038 54.0668 199.992 57.2588C206.946 60.4508 212.304 64.9538 216.066 70.7678C219.942 76.4678 221.88 83.1368 221.88 90.7748V92.8268C221.88 100.465 219.942 107.305 216.066 113.347C212.304 119.389 206.889 124.177 199.821 127.711C192.867 131.131 184.488 132.841 174.684 132.841Z" fill="white" fill-opacity="0.21"/>
<path d="M31.0959 128.053L30.6722 128.959L30.6843 128.964L31.0959 128.053ZM13.8249 114.715L13.0346 115.328L13.0425 115.338L13.8249 114.715ZM4.07793 95.3918L3.1142 95.6587L3.11666 95.6676L3.11928 95.6764L4.07793 95.3918ZM6.98493 31.2668L6.06696 30.8701L6.98493 31.2668ZM25.2819 9.20779L24.7272 8.37574L24.7272 8.37574L25.2819 9.20779ZM87.6969 9.20779L87.1368 10.0362L87.1422 10.0398L87.6969 9.20779ZM105.994 31.2668L105.076 31.6634V31.6634L105.994 31.2668ZM108.73 95.3918L107.77 95.1112L107.767 95.121L108.73 95.3918ZM98.9829 114.715L98.2005 114.092L98.1927 114.102L98.9829 114.715ZM81.8829 128.053L82.3001 128.962L82.3066 128.959L81.8829 128.053ZM77.0949 97.4438L76.2764 96.8694L76.2743 96.8723L77.0949 97.4438ZM76.9239 36.3968L76.1102 36.978L76.1161 36.9863L76.1222 36.9945L76.9239 36.3968ZM35.8839 36.3968L36.6927 36.985L36.6977 36.978L35.8839 36.3968ZM35.7129 97.2728L34.8876 97.8375L34.8944 97.8472L35.7129 97.2728ZM56.5749 132.841V131.841C46.7607 131.841 38.4154 130.261 31.5075 127.141L31.0959 128.053L30.6843 128.964C37.9124 132.228 46.5531 133.841 56.5749 133.841V132.841ZM31.0959 128.053L31.5196 127.147C24.5782 123.9 18.9485 119.546 14.6074 114.092L13.8249 114.715L13.0425 115.338C17.5933 121.055 23.4776 125.593 30.6722 128.959L31.0959 128.053ZM13.8249 114.715L14.6151 114.102C10.3648 108.621 7.17 102.293 5.03658 95.1072L4.07793 95.3918L3.11928 95.6764C5.31786 103.082 8.62105 109.636 13.0347 115.328L13.8249 114.715ZM4.07793 95.3918L5.04166 95.1249C3.0153 87.8075 1.99993 80.0887 1.99993 71.9648H0.99993H-6.96182e-05C-6.96182e-05 80.2569 1.03656 88.1561 3.1142 95.6587L4.07793 95.3918ZM0.99993 71.9648H1.99993V62.2178H0.99993H-6.96182e-05V71.9648H0.99993ZM0.99993 62.2178H1.99993C1.99993 50.9361 3.97377 40.7566 7.9029 31.6634L6.98493 31.2668L6.06696 30.8701C2.01609 40.245 -6.96182e-05 50.6995 -6.96182e-05 62.2178H0.99993ZM6.98493 31.2668L7.9029 31.6634C11.818 22.6029 17.7925 15.4026 25.8366 10.0398L25.2819 9.20779L24.7272 8.37574C16.3553 13.957 10.1319 21.4627 6.06696 30.8701L6.98493 31.2668ZM25.2819 9.20779L25.8366 10.0398C33.8396 4.70452 44.0629 1.99979 56.5749 1.99979V0.999791V-0.000208855C43.7789 -0.000208855 33.1403 2.76706 24.7272 8.37574L25.2819 9.20779ZM56.5749 0.999791V1.99979C69.0877 1.99979 79.2508 4.70481 87.1369 10.0362L87.6969 9.20779L88.257 8.37934C79.9551 2.76677 69.3701 -0.000208855 56.5749 -0.000208855V0.999791ZM87.6969 9.20779L87.1422 10.0398C95.1863 15.4026 101.161 22.6029 105.076 31.6634L105.994 31.2668L106.912 30.8701C102.847 21.4627 96.6235 13.957 88.2516 8.37574L87.6969 9.20779ZM105.994 31.2668L105.076 31.6634C109.005 40.7566 110.979 50.9361 110.979 62.2178H111.979H112.979C112.979 50.6995 110.963 40.245 106.912 30.8701L105.994 31.2668ZM111.979 62.2178H110.979V71.9648H111.979H112.979V62.2178H111.979ZM111.979 71.9648H110.979C110.979 80.0838 109.908 87.798 107.77 95.1112L108.73 95.3918L109.69 95.6724C111.884 88.1656 112.979 80.2617 112.979 71.9648H111.979ZM108.73 95.3918L107.767 95.121C105.749 102.297 102.559 108.617 98.2005 114.092L98.9829 114.715L99.7654 115.338C104.299 109.641 107.607 103.079 109.693 95.6625L108.73 95.3918ZM98.9829 114.715L98.1927 114.102C93.9677 119.55 88.3987 123.901 81.4593 127.147L81.8829 128.053L82.3066 128.959C89.5031 125.592 95.3342 121.052 99.7732 115.328L98.9829 114.715ZM81.8829 128.053L81.4658 127.144C74.6753 130.261 66.3899 131.841 56.5749 131.841V132.841V133.841C66.596 133.841 75.1825 132.229 82.3001 128.962L81.8829 128.053ZM56.5749 107.02V108.02C66.0662 108.02 73.2459 104.72 77.9155 98.0153L77.0949 97.4438L76.2743 96.8723C72.052 102.935 65.5517 106.02 56.5749 106.02V107.02ZM77.0949 97.4438L77.9135 98.0182C82.6491 91.27 84.9349 80.9891 84.9349 67.3478H83.9349H82.9349C82.9349 80.8385 80.6608 90.6216 76.2764 96.8694L77.0949 97.4438ZM83.9349 67.3478H84.9349C84.9349 52.9253 82.5981 42.3353 77.7257 35.7991L76.9239 36.3968L76.1222 36.9945C80.5977 42.9982 82.9349 53.0422 82.9349 67.3478H83.9349ZM76.9239 36.3968L77.7377 35.8156C72.9601 29.127 65.8489 25.8208 56.5749 25.8208V26.8208V27.8208C65.3129 27.8208 71.7677 30.8986 76.1102 36.978L76.9239 36.3968ZM56.5749 26.8208V25.8208C47.0832 25.8208 39.8529 29.1198 35.0702 35.8156L35.8839 36.3968L36.6977 36.978C41.035 30.9058 47.5986 27.8208 56.5749 27.8208V26.8208ZM35.8839 36.3968L35.0752 35.8086C30.3244 42.341 28.0439 52.8101 28.0439 67.0058H29.0439H30.0439C30.0439 52.9295 32.3235 42.9926 36.6927 36.985L35.8839 36.3968ZM29.0439 67.0058H28.0439C28.0439 80.7558 30.2712 91.0903 34.8876 97.8375L35.7129 97.2728L36.5382 96.7081C32.2627 90.4592 30.0439 80.6158 30.0439 67.0058H29.0439ZM35.7129 97.2728L34.8944 97.8472C39.6767 104.662 46.9673 108.02 56.5749 108.02V107.02V106.02C47.4866 106.02 40.8692 102.88 36.5315 96.6984L35.7129 97.2728ZM149.376 127.54L148.917 128.428L148.926 128.433L148.934 128.437L149.376 127.54ZM133.131 112.834L132.278 113.355L133.131 112.834ZM127.488 91.9718V90.9718H126.488V91.9718H127.488ZM154.506 91.9718H155.506V90.9718H154.506V91.9718ZM159.807 104.797L159.124 105.527L159.13 105.533L159.137 105.539L159.807 104.797ZM185.457 107.191L185.931 108.071L185.457 107.191ZM192.297 100.693L193.161 101.197L193.165 101.189L193.169 101.181L192.297 100.693ZM189.39 77.6078L188.671 78.3032L188.677 78.3091L188.683 78.3149L189.39 77.6078ZM165.621 73.8458L165.256 72.9146L165.249 72.9173L165.242 72.9202L165.621 73.8458ZM159.123 77.6078L158.262 78.1172L158.853 79.1153L159.753 78.3839L159.123 77.6078ZM146.469 56.2328L145.923 55.395L145.12 55.9179L145.608 56.7422L146.469 56.2328ZM184.26 31.6088L184.806 32.4466L185.571 31.9481L185.144 31.1409L184.26 31.6088ZM182.721 28.7018L183.605 28.2339L183.323 27.7018H182.721V28.7018ZM132.618 28.7018H131.618V29.7018H132.618V28.7018ZM132.618 4.76179V3.76179H131.618V4.76179H132.618ZM216.75 4.76179H217.75V3.76179H216.75V4.76179ZM216.75 30.7538L217.286 31.5979L217.75 31.3032V30.7538H216.75ZM173.145 58.4558L172.88 59.42L173.307 59.5375L173.681 59.2999L173.145 58.4558ZM159.465 54.6938L159.177 53.736L155.845 54.7356L159.2 55.658L159.465 54.6938ZM166.647 53.1548L166.782 54.1456L166.8 54.1431L166.818 54.14L166.647 53.1548ZM199.992 57.2588L199.575 58.1676L199.992 57.2588ZM216.066 70.7678L215.226 71.311L215.232 71.3206L215.239 71.3301L216.066 70.7678ZM216.066 113.347L215.224 112.807L215.217 112.818L216.066 113.347ZM199.821 127.711L200.262 128.608L200.268 128.605L199.821 127.711ZM174.684 132.841V131.841C165.115 131.841 156.836 130.096 149.817 126.643L149.376 127.54L148.934 128.437C156.28 132.051 164.873 133.841 174.684 133.841V132.841ZM149.376 127.54L149.834 126.651C142.912 123.078 137.641 118.296 133.984 112.312L133.131 112.834L132.278 113.355C136.145 119.683 141.704 124.705 148.917 128.428L149.376 127.54ZM133.131 112.834L133.984 112.312C130.325 106.325 128.488 99.554 128.488 91.9718H127.488H126.488C126.488 99.8936 128.412 107.031 132.278 113.355L133.131 112.834ZM127.488 91.9718V92.9718H154.506V91.9718V90.9718H127.488V91.9718ZM154.506 91.9718H153.506C153.506 97.4668 155.369 102.015 159.124 105.527L159.807 104.797L160.49 104.067C157.176 100.967 155.506 96.9648 155.506 91.9718H154.506ZM159.807 104.797L159.137 105.539C162.909 108.947 168.138 110.585 174.684 110.585V109.585V108.585C168.462 108.585 163.772 107.031 160.477 104.055L159.807 104.797ZM174.684 109.585V110.585C179.026 110.585 182.789 109.763 185.931 108.071L185.457 107.191L184.983 106.31C182.197 107.81 178.777 108.585 174.684 108.585V109.585ZM185.457 107.191L185.931 108.071C189.046 106.394 191.466 104.102 193.161 101.197L192.297 100.693L191.433 100.189C189.936 102.756 187.795 104.796 184.983 106.31L185.457 107.191ZM192.297 100.693L193.169 101.181C194.856 98.17 195.691 94.8075 195.691 91.1168H194.691H193.691C193.691 94.4941 192.93 97.5156 191.424 100.204L192.297 100.693ZM194.691 91.1168H195.691C195.691 85.4073 193.837 80.6409 190.097 76.9007L189.39 77.6078L188.683 78.3149C192.01 81.6427 193.691 85.8823 193.691 91.1168H194.691ZM189.39 77.6078L190.108 76.9124C186.448 73.1303 181.254 71.3068 174.684 71.3068V72.3068V73.3068C180.882 73.3068 185.491 75.0173 188.671 78.3032L189.39 77.6078ZM174.684 72.3068V71.3068C171.165 71.3068 168.017 71.8345 165.256 72.9146L165.621 73.8458L165.985 74.777C168.469 73.8051 171.363 73.3068 174.684 73.3068V72.3068ZM165.621 73.8458L165.242 72.9202C162.657 73.9779 160.403 75.2791 158.492 76.8317L159.123 77.6078L159.753 78.3839C161.491 76.9724 163.569 75.7657 165.999 74.7713L165.621 73.8458ZM159.123 77.6078L159.983 77.0984L147.329 55.7234L146.469 56.2328L145.608 56.7422L158.262 78.1172L159.123 77.6078ZM146.469 56.2328L147.015 57.0706L184.806 32.4466L184.26 31.6088L183.714 30.771L145.923 55.395L146.469 56.2328ZM184.26 31.6088L185.144 31.1409L183.605 28.2339L182.721 28.7018L181.837 29.1697L183.376 32.0767L184.26 31.6088ZM182.721 28.7018V27.7018H132.618V28.7018V29.7018H182.721V28.7018ZM132.618 28.7018H133.618V4.76179H132.618H131.618V28.7018H132.618ZM132.618 4.76179V5.76179H216.75V4.76179V3.76179H132.618V4.76179ZM216.75 4.76179H215.75V30.7538H216.75H217.75V4.76179H216.75ZM216.75 30.7538L216.214 29.9097L172.609 57.6117L173.145 58.4558L173.681 59.2999L217.286 31.5979L216.75 30.7538ZM173.145 58.4558L173.41 57.4916L159.73 53.7296L159.465 54.6938L159.2 55.658L172.88 59.42L173.145 58.4558ZM159.465 54.6938L159.752 55.6516C161.979 54.9835 164.322 54.481 166.782 54.1456L166.647 53.1548L166.512 52.164C163.955 52.5125 161.51 53.0361 159.177 53.736L159.465 54.6938ZM166.647 53.1548L166.818 54.14C169.378 53.6949 172.113 53.4708 175.026 53.4708V52.4708V51.4708C172.011 51.4708 169.16 51.7027 166.475 52.1696L166.647 53.1548ZM175.026 52.4708V53.4708C184.609 53.4708 192.782 55.0495 199.575 58.1676L199.992 57.2588L200.409 56.35C193.294 53.0841 184.823 51.4708 175.026 51.4708V52.4708ZM199.992 57.2588L199.575 58.1676C206.375 61.289 211.578 65.673 215.226 71.311L216.066 70.7678L216.905 70.2245C213.03 64.2346 207.517 59.6126 200.409 56.35L199.992 57.2588ZM216.066 70.7678L215.239 71.3301C218.99 76.8465 220.88 83.3148 220.88 90.7748H221.88H222.88C222.88 82.9588 220.894 76.0891 216.893 70.2055L216.066 70.7678ZM221.88 90.7748H220.88V92.8268H221.88H222.88V90.7748H221.88ZM221.88 92.8268H220.88C220.88 100.286 218.99 106.936 215.224 112.807L216.066 113.347L216.908 113.887C220.894 107.673 222.88 100.643 222.88 92.8268H221.88ZM216.066 113.347L215.217 112.818C211.563 118.687 206.295 123.356 199.374 126.816L199.821 127.711L200.268 128.605C207.482 124.998 213.045 120.091 216.915 113.875L216.066 113.347ZM199.821 127.711L199.38 126.813C192.594 130.15 184.374 131.841 174.684 131.841V132.841V133.841C184.601 133.841 193.139 132.111 200.262 128.608L199.821 127.711Z" fill="url(#paint0_linear_0_542)" mask="url(#path-1-outside-1_0_542)"/>
<defs>
<linearGradient id="paint0_linear_0_542" x1="26.6748" y1="129.592" x2="79.4656" y2="-20.4494" gradientUnits="userSpaceOnUse">
<stop stop-color="#585858"/>
<stop offset="1" stop-color="#869F9B"/>
</linearGradient>
</defs>
</svg>

<svg xmlns="http://www.w3.org/2000/svg" width="223" height="134" fill="none" viewBox="0 0 223 134"><mask id="b" width="224" height="135" x="-.747" y="-.408" fill="#000" maskUnits="userSpaceOnUse"><path fill="#fff" d="M-.747-.408h224v135h-224z"/><path d="M56.575 132.841q-14.877 0-25.48-4.788-10.6-4.959-17.27-13.338-6.498-8.379-9.747-19.323Q1 84.276 1 71.965v-9.747q0-17.1 5.985-30.951t18.297-22.06Q37.594 1 56.575 1t31.122 8.208q12.312 8.208 18.297 22.059 5.985 13.85 5.985 30.95v9.748q0 12.312-3.249 23.427-3.078 10.944-9.747 19.323-6.498 8.379-17.1 13.338-10.431 4.788-25.308 4.788m0-25.821q13.851 0 20.52-9.576 6.84-9.747 6.84-30.096 0-21.546-7.011-30.951-6.84-9.576-20.35-9.576-13.85 0-20.69 9.576-6.84 9.405-6.84 30.609 0 20.52 6.669 30.267 6.84 9.747 20.862 9.747m118.109 25.821q-14.535 0-25.308-5.301-10.602-5.472-16.245-14.706t-5.643-20.862h27.018q0 7.866 5.301 12.825 5.301 4.788 14.877 4.788 6.327 0 10.773-2.394t6.84-6.498q2.394-4.275 2.394-9.576 0-8.208-5.301-13.51-5.13-5.3-14.706-5.3-5.13 0-9.063 1.539-3.762 1.539-6.498 3.762l-12.654-21.375 37.791-24.624-1.539-2.907h-50.103V4.762h84.132v25.992l-43.605 27.702-13.68-3.762a47 47 0 0 1 7.182-1.54q3.933-.683 8.379-.683 14.535 0 24.966 4.788t16.074 13.509q5.814 8.55 5.814 20.007v2.052q0 11.457-5.814 20.52-5.643 9.063-16.245 14.364-10.431 5.13-25.137 5.13"/></mask><path fill="#fff" fill-opacity=".21" d="M56.575 132.841q-14.877 0-25.48-4.788-10.6-4.959-17.27-13.338-6.498-8.379-9.747-19.323Q1 84.276 1 71.965v-9.747q0-17.1 5.985-30.951t18.297-22.06Q37.594 1 56.575 1t31.122 8.208q12.312 8.208 18.297 22.059 5.985 13.85 5.985 30.95v9.748q0 12.312-3.249 23.427-3.078 10.944-9.747 19.323-6.498 8.379-17.1 13.338-10.431 4.788-25.308 4.788m0-25.821q13.851 0 20.52-9.576 6.84-9.747 6.84-30.096 0-21.546-7.011-30.951-6.84-9.576-20.35-9.576-13.85 0-20.69 9.576-6.84 9.405-6.84 30.609 0 20.52 6.669 30.267 6.84 9.747 20.862 9.747m118.109 25.821q-14.535 0-25.308-5.301-10.602-5.472-16.245-14.706t-5.643-20.862h27.018q0 7.866 5.301 12.825 5.301 4.788 14.877 4.788 6.327 0 10.773-2.394t6.84-6.498q2.394-4.275 2.394-9.576 0-8.208-5.301-13.51-5.13-5.3-14.706-5.3-5.13 0-9.063 1.539-3.762 1.539-6.498 3.762l-12.654-21.375 37.791-24.624-1.539-2.907h-50.103V4.762h84.132v25.992l-43.605 27.702-13.68-3.762a47 47 0 0 1 7.182-1.54q3.933-.683 8.379-.683 14.535 0 24.966 4.788t16.074 13.509q5.814 8.55 5.814 20.007v2.052q0 11.457-5.814 20.52-5.643 9.063-16.245 14.364-10.431 5.13-25.137 5.13"/><path fill="url(#a)" d="m31.096 128.053-.424.906.012.005zm-17.271-13.338-.79.613.008.01zM4.078 95.392l-.964.267.003.009.002.008zm2.907-64.125-.918-.397zm18.297-22.06-.555-.831zm62.415 0-.56.83.005.003zm18.297 22.06-.918.396zm2.736 64.125-.96-.28-.003.009zm-9.747 19.323-.782-.623-.008.01zm-17.1 13.338.417.909.007-.003zm-4.788-30.61-.819-.574-.002.003zm-.171-61.046-.814.581.006.008.006.009zm-41.04 0 .809.588.005-.007zm-.171 60.876-.825.565.006.01zm20.862 35.568v-1c-9.814 0-18.16-1.58-25.068-4.7l-.411.912-.412.911c7.228 3.264 15.87 4.877 25.89 4.877zm-25.48-4.788.425-.906c-6.942-3.247-12.571-7.601-16.913-13.055l-.782.623-.782.623c4.55 5.717 10.435 10.255 17.63 13.621zm-17.27-13.338.79-.613c-4.25-5.481-7.445-11.809-9.578-18.995l-.96.285-.958.284c2.199 7.406 5.502 13.96 9.916 19.652zM4.078 95.392l.964-.267Q2 84.15 2 71.965H0q0 12.439 3.114 23.694zM1 71.965h1v-9.747H0v9.747zm0-9.747h1c0-11.282 1.974-21.461 5.903-30.555l-.918-.396-.918-.397C2.017 40.245 0 50.7 0 62.218zm5.985-30.951.918.396c3.915-9.06 9.89-16.26 17.934-21.623l-.555-.832-.555-.832c-8.372 5.581-14.595 13.087-18.66 22.494zm18.297-22.06.555.833C33.84 4.705 44.063 2 56.575 2V0C43.779 0 33.14 2.767 24.727 8.376zM56.575 1v1c12.513 0 22.676 2.705 30.562 8.036l.56-.828.56-.829C79.955 2.767 69.37 0 56.575 0zm31.122 8.208-.555.832c8.044 5.363 14.019 12.563 17.934 21.623l.918-.396.918-.397c-4.065-9.407-10.288-16.913-18.66-22.494zm18.297 22.059-.918.396c3.929 9.094 5.903 19.273 5.903 30.555h2c0-11.519-2.016-21.973-6.067-31.348zm5.985 30.95h-1v9.748h2v-9.747zm0 9.748h-1q-.001 12.178-3.209 23.146l.96.28.96.281q3.29-11.26 3.289-23.707zm-3.249 23.427-.963-.271c-2.018 7.176-5.208 13.496-9.566 18.971l.782.623.782.623c4.534-5.697 7.842-12.259 9.928-19.675zm-9.747 19.323-.79-.613c-4.225 5.448-9.794 9.799-16.734 13.045l.424.906.424.906c7.196-3.367 13.027-7.907 17.466-13.631zm-17.1 13.338-.417-.909c-6.79 3.117-15.076 4.697-24.891 4.697v2c10.021 0 18.608-1.612 25.725-4.879zM56.575 107.02v1c9.491 0 16.67-3.3 21.34-10.005l-.82-.571-.82-.572c-4.223 6.063-10.723 9.148-19.7 9.148zm20.52-9.576.819.574c4.735-6.748 7.02-17.029 7.02-30.67h-2c0 13.49-2.273 23.274-6.658 29.521zm6.84-30.096h1c0-14.423-2.337-25.013-7.21-31.549l-.801.598-.802.598c4.476 6.003 6.813 16.047 6.813 30.353zm-7.011-30.951.814-.581c-4.778-6.689-11.89-9.995-21.163-9.995v2c8.738 0 15.193 3.078 19.535 9.157zm-20.35-9.576v-1c-9.49 0-16.721 3.299-21.504 9.995l.814.58.814.582c4.337-6.072 10.9-9.157 19.877-9.157zm-20.69 9.576-.809-.588c-4.75 6.532-7.031 17.001-7.031 31.197h2c0-14.077 2.28-24.013 6.649-30.021zm-6.84 30.609h-1c0 13.75 2.227 24.084 6.844 30.832l.825-.565.825-.565c-4.275-6.249-6.494-16.092-6.494-29.702zm6.669 30.267-.819.574c4.783 6.815 12.073 10.173 21.68 10.173v-2c-9.087 0-15.705-3.14-20.042-9.322zm113.663 30.267-.459.888.009.005.008.004zm-16.245-14.706-.853.521zm-5.643-20.862v-1h-1v1zm27.018 0h1v-1h-1zm5.301 12.825-.683.73.006.006.007.006zm25.65 2.394.474.88zm6.84-6.498.864.504.004-.008.004-.008zm-2.907-23.085-.719.695.006.006.006.006zm-23.769-3.762-.365-.931-.007.002-.007.003zm-6.498 3.762-.861.51.591.997.9-.731zm-12.654-21.375-.546-.838-.803.523.488.824zm37.791-24.624.546.838.765-.499-.427-.807zm-1.539-2.907.884-.468-.282-.532h-.602zm-50.103 0h-1v1h1zm0-23.94v-1h-1v1zm84.132 0h1v-1h-1zm0 25.992.536.844.464-.295v-.55zm-43.605 27.702-.265.964.427.117.374-.237zm-13.68-3.762-.288-.958-3.332 1 3.355.922zm7.182-1.54.135.992.018-.003.018-.003zm33.345 4.105-.417.909zm16.074 13.509-.84.543.006.01.007.01zm0 42.579-.842-.54-.007.011zm-16.245 14.364.441.897.006-.003zm-25.137 5.13v-1c-9.569 0-17.848-1.745-24.867-5.198l-.441.897-.442.897c7.346 3.614 15.939 5.404 25.75 5.404zm-25.308-5.301.458-.889c-6.922-3.573-12.193-8.355-15.85-14.339l-.853.522-.853.521c3.867 6.328 9.426 11.35 16.639 15.073zm-16.245-14.706.853-.522c-3.659-5.987-5.496-12.758-5.496-20.34h-2c0 7.922 1.924 15.059 5.79 21.383zm-5.643-20.862v1h27.018v-2h-27.018zm27.018 0h-1c0 5.495 1.863 10.043 5.618 13.555l.683-.73.683-.73c-3.314-3.1-4.984-7.102-4.984-12.095zm5.301 12.825-.67.742c3.772 3.408 9.001 5.046 15.547 5.046v-2c-6.222 0-10.912-1.554-14.207-4.53zm14.877 4.788v1c4.342 0 8.105-.822 11.247-2.514l-.474-.88-.474-.881c-2.786 1.5-6.206 2.275-10.299 2.275zm10.773-2.394.474.88c3.115-1.677 5.535-3.969 7.23-6.874l-.864-.504-.864-.504c-1.497 2.567-3.638 4.607-6.45 6.121zm6.84-6.498.872.488c1.687-3.011 2.522-6.373 2.522-10.064h-2c0 3.377-.761 6.399-2.267 9.087zm2.394-9.576h1c0-5.71-1.854-10.476-5.594-14.216l-.707.707-.707.707c3.327 3.328 5.008 7.567 5.008 12.802zm-5.301-13.51.718-.695c-3.66-3.782-8.854-5.605-15.424-5.605v2c6.198 0 10.807 1.71 13.987 4.996zm-14.706-5.3v-1c-3.519 0-6.667.528-9.428 1.608l.365.93.364.932c2.484-.972 5.378-1.47 8.699-1.47zm-9.063 1.539-.379-.926c-2.585 1.058-4.839 2.36-6.75 3.912l.631.776.63.776c1.738-1.412 3.816-2.618 6.246-3.613zm-6.498 3.762.86-.51-12.654-21.375-.86.51-.861.51 12.654 21.374zm-12.654-21.375.546.838 37.791-24.624-.546-.838-.546-.838-37.791 24.624zm37.791-24.624.884-.468-1.539-2.907-.884.468-.884.468 1.539 2.907zm-1.539-2.907v-1h-50.103v2h50.103zm-50.103 0h1V4.762h-2v23.94zm0-23.94v1h84.132v-2h-84.132zm84.132 0h-1v25.992h2V4.762zm0 25.992-.536-.844-43.605 27.702.536.844.536.844 43.605-27.702zm-43.605 27.702.265-.964-13.68-3.762-.265.964-.265.964 13.68 3.762zm-13.68-3.762.287.958a46 46 0 0 1 7.03-1.506l-.135-.991-.135-.991a48 48 0 0 0-7.335 1.572zm7.182-1.54.171.986q3.84-.669 8.208-.67v-2q-4.523 0-8.551.7zm8.379-.683v1c9.583 0 17.756 1.579 24.549 4.697l.417-.91.417-.908c-7.115-3.266-15.586-4.88-25.383-4.88zm24.966 4.788-.417.909c6.8 3.121 12.003 7.505 15.651 13.143l.84-.543.839-.543c-3.875-5.99-9.388-10.612-16.496-13.875zm16.074 13.509-.827.562c3.751 5.517 5.641 11.985 5.641 19.445h2c0-7.816-1.986-14.686-5.987-20.57zm5.814 20.007h-1v2.052h2v-2.052zm0 2.052h-1c0 7.459-1.89 14.109-5.656 19.98l.842.54.842.54c3.986-6.214 5.972-13.244 5.972-21.06zm-5.814 20.52-.849-.529c-3.654 5.869-8.922 10.538-15.843 13.998l.447.895.447.894c7.214-3.607 12.777-8.514 16.647-14.73zm-16.245 14.364-.441-.898c-6.786 3.337-15.006 5.028-24.696 5.028v2c9.917 0 18.455-1.73 25.578-5.233z" mask="url(#b)"/><defs><linearGradient id="a" x1="26.675" x2="79.466" y1="129.592" y2="-20.449" gradientUnits="userSpaceOnUse"><stop stop-color="#585858"/><stop offset="1" stop-color="#869f9b"/></linearGradient></defs></svg>
